X:1
T:[ID 1-29a]
T:[ID 1-29a]
T:Bezeichnung standardisiert: Polonaise Polonesee
T:Urheber unbekannt Datum in der hier transkribierten schriftlichen Quelle: vermutlich vor 1767
C:Urheber unbekannt
C:Datum in der hier transkribierten schriftlichen Quelle: vermutlich vor 1767
L:1/8
M:3/4
K:D
V:1 treble 
V:1
"^O)" dd/A/ dd/A/ dd/A/ | fa agfe |"^O)" dd/A/ dd/A/ dd/A/ | fa agfe | GbFaEg | f/e/d/c/ d2 D2 :: %6
"^O)" AA/E/AA/E/AA/E/ | ceedcB |"^O)" AA/E/AA/E/AA/E/ | ceedcB | G/G/b/b/F/F/a/a/E/E/g/g/ | %11
 fedcdD :| %12

